X:1
T:Sometime
T:William James Kirkpatrick
T:Sometime
T:Public Domain
T:Public Domain
T:Public Domain
C:William James Kirkpatrick
Z:Public Domain
%%score ( 1 2 ) ( 3 4 )
L:1/8
M:4/4
K:Ab
V:1 treble 
V:2 treble 
V:3 bass 
V:4 bass 
V:1
 [CE]2 | [CE]2 [CA]2 [CA]2 [Ec]>[Ec] | [Fc]2 [FB]2 [DF]2 [FA]>[FA] | [EG]2 [=DF]2 [B,E]2 [B,D]2 | %4
w: 1.~A|voice is heard in the|dew- y dawn, And the|call is sweet and|
w: 2.~The|day is near- ing the|noon- tide glow, And the|voice is heard a-|
w: 3.~The|feet are tread- ing the|west- ern slope, And the|air is grow- ing|
w: 4.~O|soul, take heed, ere the|sha- dows fall, And the|day of grace be|
 [B,E]6 [DE]2 | [CE]2 [CA]2 [CA]2 [Ec]>[Ec] | [Fc]2 [FB]2 [DF]2 [FA]>[FA] | %7
w: low; Come|now, my child to the|Shep- herd’s fold, Where the|
w: gain, It|calls the soul to a|nob- ler life, ’Tis a|
w: chill; O|can it be God is|wait- ing yet, That His|
w: past, For|how shall a trem- bling|sin- ner stand By the|
 [EG]2 [DB]2 [DF]2 [DG]2 | [CA]6 c>c | c2 G2 A2 F>F | G2 C2 C2 ([=Ec]>[Ec]) | %11
w: liv- ing wa- ters|flow; But the|an- swers in care- less|morn- ing chime, “Let *|
w: pa- tient, kind re-|frain; En- ter|Mas- ter’s broad har- vest|ear- ly prime, Come *|
w: voice is plead- ing|still? That He’ll|beau- ty the sun- set|Gold- en Clime? But *|
w: gates of death at|last? Hear the|call; at the Cross lay|guilt and crime, And *|
 [Fc]2 [FB]>[FB] [FA]2 [=DF]2 | (E2 F2 G2) E>E | [CE]2 [EA]>[EA] [Ec]2 [_Ge]>[Ge] | %14
w: the world just a lit-|tle * * while, I|God— some- time!” * * *|
w: His work serv- ice good|and * * true, Still|ply— “some- time!” * * *|
w: long har- dened, has turned|a- * * way, With|word— “some- time!” * * *|
w: shall sing thee a sweet-|er * * song Then|frain “Some- time.” * * *|
 [Fe]2 [Fd]2 [Fd]2 [FA]>[_FB] | [Ec]3 [CA] [DB]2 z [CA] | [CA]6 z ||[M:6/8]"^Refrain" [CE] | %18
w: ||||
w: ||||
w: ||||
w: ||||
 [D_F]2 [DF] [CE]2 [CE]/[CE]/ | [EA]2 [EA] [EG]2 [EG]/[FA]/ | [GB]>[GB][GB] [GB][FA][FB] | %21
w: |||
w: |||
w: |||
w: |||
 .[=Ec]2 [Fc] .[Ec]2 (c/d/) | [Ae]2 [Af] [Ae]2 [EA]/[EB]/ | [Ac]2 [Ad] [Ac]2 [EA]/[EA]/ | %24
w: |||
w: |||
w: |||
w: |||
 [DB][DA][DF] [CE][CA][Ec] | [DB]2 (C/D/) [CA]2 |] %26
w: ||
w: ||
w: ||
w: ||
V:2
 x2 | x8 | x8 | x8 | x8 | x8 | x8 | x8 | x6 c>c | c2 G2 A2 F>F | G2 C2 C2 x2 | x8 | B6 E>E | x8 | %14
w: ||||||||gay heart|tones, As light as the|me live for||will come to||
w: ||||||||now the|field, In~the strength of your|and bring to||the same re-||
w: ||||||||flood with|sky, Bright rays from the|the sin- ner||the fa- tal||
w: ||||||||Sav- ior’s|down Thy bur- den of|the an- gels||the sad re-||
 x8 | x8 | x7 ||[M:6/8] x | x6 | x6 | x6 | x5 A | x6 | x6 | x6 | x2 A x2 |] %26
w: ||||||||||||
w: ||||||||||||
w: ||||||||||||
w: ||||||||||||
V:3
 [A,,A,]2 | [A,,A,]2 [A,,E,]2 [A,,E,]2 [A,,A,]>[A,,A,] | [D,A,]2 [D,A,]2 [D,A,]2 [D,A,]>[D,A,] | %3
w: ~|~ ~ ~ ~ ~|~ ~ ~ ~ ~|
 [B,,B,]2 [B,,A,]2 [B,,G,]2 [B,,F,]2 | [E,G,]6 [E,G,]2 | %5
w: ~ ~ ~ ~|~ ~|
 [A,,A,]2 [A,,E,]2 [A,,E,]2 [A,,A,]>[A,,A,] | [D,A,]2 [D,A,]2 [D,A,]2 [D,D]>[D,D] | %7
w: ~ ~ ~ ~ ~|~ ~ ~ ~ ~|
 [E,B,]2 [E,G,]2 [E,A,]2 [E,B,]2 | [A,,A,]6 C>C | C2 G,2 A,2 F,>F, | G,2 C,2 C,2 ([C,B,]>[C,B,]) | %11
w: ~ ~ ~ ~|~ ~ ~|~ ~ ~ ~ ~|~ ~ ~ ~ *|
 [F,A,]2 [F,D]>[F,D] [F,C]2 [F,A,]2 | (G,2 A,2 B,2) [E,G,]>[E,G,] | %13
w: ~ ~ ~ ~ ~|~ * * ~ ~|
 [A,,A,]2 [A,,C]>[A,,C] A,2 [C,A,]>[C,A,] | [D,A,]2 [D,A,]2 [D,A,]2 [D,A,]>[D,A,] | %15
w: ~ ~ ~ ~ ~ Be-|Be- ware! At the pearl-|
 [E,A,]3 [E,A,] [E,G,]2 z [A,,A,] | [A,,A,]6 z ||[M:6/8] [A,,A,] | %18
w: y gate God may|an-|swer|
 [D,A,]2 [D,A,] [A,,A,]2 [A,,A,]/[A,,A,]/ | [E,C]2 [E,C] [E,B,]2 [E,B,]/[E,C]/ | %20
w: your some- time, too late!|too late! Be- ware! Be-|
 [E,D]>[E,D][E,D] [E,D][F,C][D,F,] | .[C,G,]2 [F,A,] .[C,G,]2 (A,/B,/) | %22
w: ware! At the pearl- y gate|God may an- swer *|
 [A,C]2 [A,D] [A,C]2 [A,C]/[A,D]/ | [A,E]2 [A,F] [A,E]2 [C,A,]/[C,A,]/ | %24
w: some- time, too late! too|late! * * * *|
 [D,F,][D,F,][D,A,] [A,,A,][A,,A,][A,,A,] | [E,G,]2 (E,/F,/) [A,,E,]2 |] %26
w: ||
V:4
 x2 | x8 | x8 | x8 | x8 | x8 | x8 | x8 | x6 C>C | C2 G,2 A,2 F,>F, | G,2 C,2 C,2 x2 | x8 | E,6 x2 | %13
w: ||||||||~ ~|~ ~ ~ ~ ~|~ ~ ~||~|
 x4 A,2 x2 | x8 | x8 | x7 ||[M:6/8] x | x6 | x6 | x6 | x5 A, | x6 | x6 | x6 | x2 A,, x2 |] %26
w: ware!||||||||your|||||

